auto-lastplayed/_inc/system.svg

<svg viewBox="0 0 200 40" xmlns="http://www.w3.org/2000/svg"><g fill="#ccc" transform="matrix(1.679275 0 0 1.66353 4.529392 9.862156)"><path d="m7.38768955.08286127c-2.90928303 0-5.33665957 2.06915442-5.89129709 4.81653006h-1.06591306c-.04712821.00000686-.0902095.02663445-.11128935.06878547-.02107984.04215103-.01654144.09259336.01172379.1303047l1.60551003 2.14068004c.02350271.03134136.06039086.04978699.09956557.04978699s.07606286-.01844563.09956557-.04978699l1.60551001-2.14068004c.02826523-.03771134.03280364-.08815367.01172379-.13030469-.02107984-.04215102-.06416113-.06877861-.11128934-.06878548h-.78820343c.52904053-2.01163104 2.35531281-3.49729661 4.53439351-3.49729661 2.59310312 0 4.69208335 2.09898027 4.69208335 4.69208339s-2.09898023 4.69208339-4.69208335 4.69208339c-1.6264633 0-3.05821098-.82683457-3.90023174-2.08280177-.02310359-.03447824-.06187431-.05517027-.10337763-.05517288h-1.23999918c-.0433309.00001229-.08353612.02256173-.10614015.05952962-.02260404.03696789-.02435247.08303175-.00461578.12160675.99575019 1.94503578 3.02029981 3.27607178 5.35436448 3.27607178 3.31840245 0 6.01131685-2.69291444 6.01131685-6.01131689 0-3.31842303-2.6929148-6.01131684-6.01131685-6.01131684z"/><path d="m6.98818588 2.68890476c-.0993597.00000013-.17990661.08054704-.17990674.17990673v3.91638191c.00000654.06370037.03369774.12264821.08858029.15498461l2.78877848 1.64346702c.08556651.05041476.19579932.02195749.24626992-.0635761l.27188907-.46077236c.0503466-.08536282.0221767-.19536681-.0630021-.24602416l-2.43753217-1.44937785v-3.49508307c-.00000014-.09935969-.08054705-.1799066-.17990674-.17990673z"/></g><path d="m45.27 24.4-.84 4.8h-11.4l3.3-18.75h5.7l-2.46 13.95zm4.47 1.83-1.17 2.97h-6l7.89-18.75h8.82l1.32 18.75h-6.03l-.12-2.97zm4.26-10.02h-.3l-2.1 5.25h2.4zm8.04 12.66 1.68-4.95c1.68.46 3.22.69 4.62.69 1.4 0 2.53-.06 3.39-.18l.24-1.5-2.49-.24c-1.9-.18-3.247-.61-4.04-1.29-.787-.68-1.18-1.64-1.18-2.88 0-.54.06-1.14.18-1.8.46-2.56 1.293-4.32 2.5-5.28 1.213-.96 3.09-1.44 5.63-1.44 2.54 0 4.78.25 6.72.75l-1.56 4.8c-1.74-.3-3.14-.45-4.2-.45-1.06 0-1.96.05-2.7.15l-.24 1.47 2.01.21c2.04.22 3.49.707 4.35 1.46.86.747 1.29 1.75 1.29 3.01 0 1.28-.28 2.6-.84 3.96-.28.7-.587 1.287-.92 1.76-.327.467-.747.863-1.26 1.19-.507.333-.97.583-1.39.75-.42.173-.95.3-1.59.38-.94.14-2.09.21-3.45.21-2.48 0-4.73-.26-6.75-.78zm33.69-18.42-.87 4.8h-4.14l-2.43 13.95h-5.7l2.43-13.95h-4.11l.87-4.8zm15.3 14.22h-3.72l-.78 4.53h-5.7l3.3-18.75h9c3.4 0 5.1 1.58 5.1 4.74 0 1.5-.21 2.853-.63 4.06-.42 1.213-.883 2.177-1.39 2.89-.513.707-1.217 1.307-2.11 1.8-.887.487-1.91.73-3.07.73zm-.75-9.42h-1.32l-.81 4.62h1.32c.68 0 1.193-.073 1.54-.22.353-.153.58-.5.68-1.04.26-1.48.39-2.29.39-2.43 0-.38-.15-.63-.45-.75-.3-.12-.75-.18-1.35-.18zm19.98 9.15-.84 4.8h-11.4l3.3-18.75h5.7l-2.46 13.95zm4.47 1.83-1.17 2.97h-6l7.89-18.75h8.82l1.32 18.75h-6.03l-.12-2.97zm4.26-10.02h-.3l-2.1 5.25h2.4zm7.89-5.76h6.3l.39 6.6h.21l2.76-6.6h6.3l-7.56 13.65-.87 5.1h-5.7l.87-5.1zm27.18 7.32-.78 4.35h-5.7l-.39 2.28h6.99l-.84 4.8h-12.69l3.3-18.75h12.54l-1.56 4.8h-6.15l-.42 2.52zm10.47 11.43h-7.98l3.3-18.75h7.98c2.58 0 4.413.457 5.5 1.37 1.093.907 1.64 2.38 1.64 4.42 0 1.04-.12 2.24-.36 3.6-.6 3.36-1.627 5.76-3.08 7.2-1.447 1.44-3.78 2.16-7 2.16zm2.52-13.95h-2.37l-1.59 9.15h2.37c.78 0 1.36-.093 1.74-.28.38-.193.63-.63.75-1.31l1.05-5.97c.02-.12.03-.28.03-.48 0-.46-.16-.76-.48-.9-.32-.14-.82-.21-1.5-.21z" fill="#fff"/></svg>

<?xml version="1.0" encoding="utf-8"?>
<svg viewBox="0 0 200 40" xmlns="http://www.w3.org/2000/svg">
  <g id="Group" transform="matrix(1.679275, 0, 0, 1.66353, 4.529392, 9.862156)" fill-rule="nonzero" fill="#BBA358">
    <path d="M7.38768955,0.0828612674 C4.47840652,0.0828612674 2.05102998,2.15201569 1.49639246,4.89939133 L0.430479403,4.89939133 C0.383351189,4.89939819 0.3402699,4.92602578 0.319190054,4.9681768 C0.298110207,5.01032783 0.302648611,5.06077016 0.330913843,5.0984815 L1.93642387,7.23916154 C1.95992658,7.2705029 1.99681473,7.28894853 2.03598944,7.28894853 C2.07516415,7.28894853 2.1120523,7.2705029 2.13555501,7.23916154 L3.74106502,5.0984815 C3.76933025,5.06077016 3.77386866,5.01032783 3.75278881,4.96817681 C3.73170897,4.92602579 3.68862768,4.8993982 3.64149947,4.89939133 L2.85329604,4.89939133 C3.38233657,2.88776029 5.20860885,1.40209472 7.38768955,1.40209472 C9.98079267,1.40209472 12.0797729,3.50107499 12.0797729,6.09417811 C12.0797729,8.68728123 9.98079267,10.7862615 7.38768955,10.7862615 C5.76122625,10.7862615 4.32947857,9.95942693 3.48745781,8.70345973 C3.46435422,8.66898149 3.4255835,8.64828946 3.38408018,8.64828685 L2.144081,8.64828685 C2.1007501,8.64829914 2.06054488,8.67084858 2.03794085,8.70781647 C2.01533681,8.74478436 2.01358838,8.79084822 2.03332507,8.82942322 C3.02907526,10.774459 5.05362488,12.105495 7.38768955,12.105495 C10.706092,12.105495 13.3990064,9.41258056 13.3990064,6.09417811 C13.3990064,2.77575508 10.7060916,0.0828612674 7.38768955,0.0828612674 Z" id="path4921" style="fill: rgb(204, 204, 204);"/>
    <path d="M6.98818588,2.68890476 C6.88882618,2.68890489 6.80827927,2.7694518 6.80827914,2.86881149 L6.80827914,6.7851934 C6.80828568,6.84889377 6.84197688,6.90784161 6.89685943,6.94017801 L9.68563791,8.58364503 C9.77120442,8.63405979 9.88143723,8.60560252 9.93190783,8.52006893 L10.2037969,8.05929657 C10.2541435,7.97393375 10.2259736,7.86392976 10.1407948,7.81327241 L7.70326263,6.36389456 L7.70326263,2.86881149 C7.70326249,2.7694518 7.62271558,2.68890489 7.52335589,2.68890476 L6.98818588,2.68890476 Z" id="polygon4923" style="fill: rgb(204, 204, 204);"/>
  </g>
  <path d="M 45.27 24.4 L 44.43 29.2 L 33.03 29.2 L 36.33 10.45 L 42.03 10.45 L 39.57 24.4 L 45.27 24.4 Z M 49.74 26.23 L 48.57 29.2 L 42.57 29.2 L 50.46 10.45 L 59.28 10.45 L 60.6 29.2 L 54.57 29.2 L 54.45 26.23 L 49.74 26.23 Z M 54 16.21 L 53.7 16.21 L 51.6 21.46 L 54 21.46 L 54 16.21 Z M 62.04 28.87 L 62.04 28.87 L 63.72 23.92 L 63.72 23.92 C 65.4 24.38 66.94 24.61 68.34 24.61 L 68.34 24.61 L 68.34 24.61 C 69.74 24.61 70.87 24.55 71.73 24.43 L 71.73 24.43 L 71.97 22.93 L 69.48 22.69 L 69.48 22.69 C 67.58 22.51 66.233 22.08 65.44 21.4 L 65.44 21.4 L 65.44 21.4 C 64.653 20.72 64.26 19.76 64.26 18.52 L 64.26 18.52 L 64.26 18.52 C 64.26 17.98 64.32 17.38 64.44 16.72 L 64.44 16.72 L 64.44 16.72 C 64.9 14.16 65.733 12.4 66.94 11.44 L 66.94 11.44 L 66.94 11.44 C 68.153 10.48 70.03 10 72.57 10 L 72.57 10 L 72.57 10 C 75.11 10 77.35 10.25 79.29 10.75 L 79.29 10.75 L 77.73 15.55 L 77.73 15.55 C 75.99 15.25 74.59 15.1 73.53 15.1 L 73.53 15.1 L 73.53 15.1 C 72.47 15.1 71.57 15.15 70.83 15.25 L 70.83 15.25 L 70.59 16.72 L 72.6 16.93 L 72.6 16.93 C 74.64 17.15 76.09 17.637 76.95 18.39 L 76.95 18.39 L 76.95 18.39 C 77.81 19.137 78.24 20.14 78.24 21.4 L 78.24 21.4 L 78.24 21.4 C 78.24 22.68 77.96 24 77.4 25.36 L 77.4 25.36 L 77.4 25.36 C 77.12 26.06 76.813 26.647 76.48 27.12 L 76.48 27.12 L 76.48 27.12 C 76.153 27.587 75.733 27.983 75.22 28.31 L 75.22 28.31 L 75.22 28.31 C 74.713 28.643 74.25 28.893 73.83 29.06 L 73.83 29.06 L 73.83 29.06 C 73.41 29.233 72.88 29.36 72.24 29.44 L 72.24 29.44 L 72.24 29.44 C 71.3 29.58 70.15 29.65 68.79 29.65 L 68.79 29.65 L 68.79 29.65 C 66.31 29.65 64.06 29.39 62.04 28.87 Z M 95.73 10.45 L 94.86 15.25 L 90.72 15.25 L 88.29 29.2 L 82.59 29.2 L 85.02 15.25 L 80.91 15.25 L 81.78 10.45 L 95.73 10.45 Z M 111.03 24.67 L 111.03 24.67 L 107.31 24.67 L 106.53 29.2 L 100.83 29.2 L 104.13 10.45 L 113.13 10.45 L 113.13 10.45 C 116.53 10.45 118.23 12.03 118.23 15.19 L 118.23 15.19 L 118.23 15.19 C 118.23 16.69 118.02 18.043 117.6 19.25 L 117.6 19.25 L 117.6 19.25 C 117.18 20.463 116.717 21.427 116.21 22.14 L 116.21 22.14 L 116.21 22.14 C 115.697 22.847 114.993 23.447 114.1 23.94 L 114.1 23.94 L 114.1 23.94 C 113.213 24.427 112.19 24.67 111.03 24.67 Z M 110.28 15.25 L 108.96 15.25 L 108.15 19.87 L 109.47 19.87 L 109.47 19.87 C 110.15 19.87 110.663 19.797 111.01 19.65 L 111.01 19.65 L 111.01 19.65 C 111.363 19.497 111.59 19.15 111.69 18.61 L 111.69 18.61 L 111.69 18.61 C 111.95 17.13 112.08 16.32 112.08 16.18 L 112.08 16.18 L 112.08 16.18 C 112.08 15.8 111.93 15.55 111.63 15.43 L 111.63 15.43 L 111.63 15.43 C 111.33 15.31 110.88 15.25 110.28 15.25 L 110.28 15.25 Z M 130.26 24.4 L 129.42 29.2 L 118.02 29.2 L 121.32 10.45 L 127.02 10.45 L 124.56 24.4 L 130.26 24.4 Z M 134.73 26.23 L 133.56 29.2 L 127.56 29.2 L 135.45 10.45 L 144.27 10.45 L 145.59 29.2 L 139.56 29.2 L 139.44 26.23 L 134.73 26.23 Z M 138.99 16.21 L 138.69 16.21 L 136.59 21.46 L 138.99 21.46 L 138.99 16.21 Z M 146.88 10.45 L 153.18 10.45 L 153.57 17.05 L 153.78 17.05 L 156.54 10.45 L 162.84 10.45 L 155.28 24.1 L 154.41 29.2 L 148.71 29.2 L 149.58 24.1 L 146.88 10.45 Z M 174.06 17.77 L 173.28 22.12 L 167.58 22.12 L 167.19 24.4 L 174.18 24.4 L 173.34 29.2 L 160.65 29.2 L 163.95 10.45 L 176.49 10.45 L 174.93 15.25 L 168.78 15.25 L 168.36 17.77 L 174.06 17.77 Z M 184.53 29.2 L 176.55 29.2 L 179.85 10.45 L 187.83 10.45 L 187.83 10.45 C 190.41 10.45 192.243 10.907 193.33 11.82 L 193.33 11.82 L 193.33 11.82 C 194.423 12.727 194.97 14.2 194.97 16.24 L 194.97 16.24 L 194.97 16.24 C 194.97 17.28 194.85 18.48 194.61 19.84 L 194.61 19.84 L 194.61 19.84 C 194.01 23.2 192.983 25.6 191.53 27.04 L 191.53 27.04 L 191.53 27.04 C 190.083 28.48 187.75 29.2 184.53 29.2 L 184.53 29.2 Z M 187.05 15.25 L 187.05 15.25 L 184.68 15.25 L 183.09 24.4 L 185.46 24.4 L 185.46 24.4 C 186.24 24.4 186.82 24.307 187.2 24.12 L 187.2 24.12 L 187.2 24.12 C 187.58 23.927 187.83 23.49 187.95 22.81 L 187.95 22.81 L 189 16.84 L 189 16.84 C 189.02 16.72 189.03 16.56 189.03 16.36 L 189.03 16.36 L 189.03 16.36 C 189.03 15.9 188.87 15.6 188.55 15.46 L 188.55 15.46 L 188.55 15.46 C 188.23 15.32 187.73 15.25 187.05 15.25 Z" style="white-space: pre; fill: rgb(255, 255, 255);"/>
</svg>
